X: 30730
T: Orlaith's Magic Tree
R: reel
M: 4/4
K: Aminor
AGEG Aceg|edcd e2de|aged edcA|GEDE G2cB|
AGED EGAc|{e}dcde g2ag|edcd eged|ecAG A4||
Ad ~d2 fdef|edcA c2 cd|eg ~g2 ~a3 c'|gede gac'a|
gede gac'a|gede g2 eg|ageg agac'|ageg aged|
~c3 d edce|dBAG EG~GA|~B3 c dBAG|EG~GB AGEG|
AGED EGAc|{e}dcde g2 ag|edcd eged|ecAG A4||

